img/delete_col.svg

<svg xmlns="http://www.w3.org/2000/svg" width="24" height="24" viewBox="0 0 24 24">
  <path d="M12.6414391,21.9312708 C12.9358807,22.5689168 13.3234155,23.1547532 13.7866134,23.6713497 C13.2317936,23.8836754 12.6294813,24 12,24 C9.23857625,24 7,21.7614237 7,19 L7,5 C7,2.23857625 9.23857625,0 12,0 C14.7614237,0 17,2.23857625 17,5 L17,12.2898787 C16.2775651,12.5048858 15.6040072,12.8333806 15,13.2546893 L15,5 C15,3.34314575 13.6568542,2 12,2 C10.3431458,2 9,3.34314575 9,5 L9,19 C9,20.6568542 10.3431458,22 12,22 C12.220157,22 12.4347751,21.9762852 12.6414391,21.9312708 Z M19,14 C21.7600532,14.0033061 23.9966939,16.2399468 24,19 C24,21.7614237 21.7614237,24 19,24 C16.2385763,24 14,21.7614237 14,19 C14,16.2385763 16.2385763,14 19,14 Z M16.5,19.9375 L21.5,19.9375 C22.017767,19.9375 22.4375,19.517767 22.4375,19 C22.4375,18.482233 22.017767,18.0625 21.5,18.0625 L16.5,18.0625 C15.982233,18.0625 15.5625,18.482233 15.5625,19 C15.5625,19.517767 15.982233,19.9375 16.5,19.9375 Z"/>
</svg>

<svg width="24" height="24" viewBox="0 0 24 24" xmlns="http://www.w3.org/2000/svg"><path d="m12.641 21.931c0.29444 0.63765 0.68198 1.2235 1.1452 1.7401-0.55482 0.21233-1.1571 0.32865-1.7866 0.32865-2.7614 0-5-2.2386-5-5v-14c0-2.7614 2.2386-5 5-5s5 2.2386 5 5v7.2899c-0.72243 0.21501-1.396 0.5435-2 0.96481v-8.2547c0-1.6569-1.3431-3-3-3s-3 1.3431-3 3v14c0 1.6569 1.3431 3 3 3 0.22016 0 0.43478-0.023715 0.64144-0.068729zm6.3586-7.9313c2.7601 0.0033061 4.9967 2.2399 5 5 0 2.7614-2.2386 5-5 5s-5-2.2386-5-5 2.2386-5 5-5zm-2.5 5.9375h5c0.51777 0 0.9375-0.41973 0.9375-0.9375s-0.41973-0.9375-0.9375-0.9375h-5c-0.51777 0-0.9375 0.41973-0.9375 0.9375s0.41973 0.9375 0.9375 0.9375z"/></svg>
